src/asset/cabinet/user.svg

<svg width="24" height="24" viewBox="0 0 24 24" fill="none" xmlns="http://www.w3.org/2000/svg">
    <path fill-rule="evenodd" clip-rule="evenodd" d="M7.98429 11.3099C7.60391 11.0248 7.29461 10.6211 7.08281 10.1768C7.02657 10.0591 6.97869 9.94209 6.93848 9.82658C6.70625 9.15954 6.82179 8.47543 7.1661 7.94631C7.15182 7.74774 7.14415 7.54985 7.14391 7.35446L7.14079 6.98584C7.13679 6.6507 7.13658 6.30411 7.16032 5.99176C7.18274 5.69684 7.23631 5.25613 7.43688 4.81292C7.6752 4.28626 8.07598 3.85184 8.61967 3.58084C8.86279 3.45965 9.10451 3.38695 9.319 3.34196C9.47694 3.10045 9.75188 2.75709 10.189 2.48854C10.7923 2.11794 11.4635 2.02479 12.0468 2.00475C12.0588 2.00434 12.0708 2.00404 12.0827 2.00384L12.3266 1.99984L12.3594 1.99957C12.8735 1.99957 13.6632 2.0426 14.4564 2.27989C15.2237 2.50947 16.3128 3.02056 16.9239 4.18714C17.2374 4.78552 17.3011 5.51576 17.0293 6.19633C17.0099 6.24493 16.9903 6.29186 16.978 6.32155L16.9763 6.32551C16.9009 6.50657 16.8695 6.58996 16.8481 6.69177C16.8293 6.7812 16.8115 6.92405 16.8402 7.1491C16.8725 7.3931 16.8693 7.64165 16.8545 7.85261C17.1193 8.24664 17.2551 8.75479 17.1566 9.37051C17.1237 9.57608 17.0688 9.78863 16.9887 10.0042C16.9083 10.2244 16.8151 10.4106 16.7267 10.5621C16.5196 10.9171 16.2466 11.1559 16.0263 11.3077C15.7771 11.8924 15.4424 12.4991 15 12.989V13.2061C16.0836 13.4237 17.1462 13.8023 18.0937 14.2898C19.2391 14.8791 20.3462 15.6949 21.0975 16.7181C21.8099 17.6884 21.7621 18.8928 21.1577 19.7734C20.6106 20.5705 19.699 20.9996 18.7776 20.9995L5.22097 20.9986C4.29962 20.9986 3.38963 20.5696 2.84242 19.7753C2.23865 18.8989 2.18452 17.6966 2.89272 16.7232C3.64477 15.6894 4.75609 14.871 5.90428 14.2823C6.85333 13.7957 7.91669 13.4198 9.00001 13.2042V12.9695C8.56439 12.4808 8.23271 11.8859 7.98429 11.3099ZM14.348 10.1092L14.4266 9.88957C14.4529 9.81617 14.5225 9.76719 14.6004 9.76719C14.7266 9.76719 14.9356 9.66317 14.9992 9.55418C15.0132 9.53026 15.0274 9.50432 15.0416 9.47634C15.0659 9.42806 15.09 9.3737 15.1118 9.31322C15.1477 9.21781 15.1695 9.13079 15.1817 9.05456C15.2003 8.93845 15.0964 8.85098 14.9794 8.86283C14.8456 8.87638 14.7337 8.76251 14.7495 8.62895L14.8142 8.0843C14.8335 7.94795 14.8521 7.81604 14.861 7.69383C14.8684 7.59109 14.869 7.49521 14.8572 7.40935C14.8319 7.2137 14.8228 7.03404 14.8256 6.86883C14.8879 6.86423 14.9515 6.86278 15.0162 6.86447C14.9534 6.86258 14.8899 6.864 14.8256 6.86883C14.8361 6.26229 15.0076 5.85038 15.1301 5.55647C15.1432 5.52496 15.1581 5.4891 15.172 5.45444C15.2166 5.34268 15.2082 5.22185 15.1523 5.11525C14.6474 4.15143 13.2036 3.99957 12.3594 3.99957L12.1155 4.00357C11.2131 4.03457 11.0734 4.28555 10.9123 4.57753C10.779 4.81755 10.5564 5.21851 9.97114 5.26649C9.19548 5.33148 9.12457 5.62446 9.14069 6.96537L9.14391 7.34535C9.14391 7.6425 9.16725 7.96137 9.21184 8.28921C9.21211 8.29124 9.21239 8.29326 9.21267 8.29529L9.27607 8.75571C9.29499 8.89314 9.16822 9.00572 9.03399 8.97069C8.90405 8.93678 8.78313 9.04219 8.82729 9.16902C8.84347 9.2155 8.86352 9.26473 8.88822 9.31622C8.90022 9.34141 8.91253 9.36541 8.92501 9.38825C9.0281 9.57678 9.14385 9.68609 9.2096 9.7274C9.23061 9.7406 9.25505 9.74618 9.27955 9.75013C9.45068 9.77776 9.59167 9.89939 9.6441 10.0646L9.64777 10.0762C9.72858 10.3036 9.81611 10.5165 9.90861 10.7121C9.92259 10.7417 9.93669 10.7709 9.9509 10.7997C10.2103 11.3252 10.5053 11.716 10.7987 11.9138C10.812 11.9228 10.8263 11.9301 10.8413 11.9361C10.9372 11.9744 11 12.0673 11 12.1705V13.9996C11 14.5519 10.5509 14.9951 10.0031 15.0653C8.30336 15.2831 6.55147 16.0236 5.37429 16.9987C5.37017 17.0021 5.36607 17.0055 5.36196 17.0089C5.31407 17.0488 5.26714 17.089 5.22121 17.1297C4.94461 17.3744 4.70443 17.6325 4.50999 17.8998C4.1385 18.4104 4.58963 18.9986 5.22109 18.9986L18.7777 18.9995C19.4096 18.9995 19.8593 18.4111 19.4853 17.9017C19.2915 17.6378 19.0527 17.3822 18.7779 17.1394C18.729 17.0962 18.679 17.0535 18.6279 17.0111C18.6232 17.0072 18.6185 17.0034 18.6138 16.9995C17.4367 16.0293 15.6906 15.2857 13.9969 15.0661C13.4492 14.9951 13 14.5519 13 13.9996V12.2549C13 12.0992 13.0904 11.9576 13.2316 11.8921C13.2531 11.8821 13.2738 11.8704 13.2927 11.8562C13.5746 11.6448 13.8598 11.2367 14.1098 10.6958C14.1183 10.6773 14.1268 10.6587 14.1353 10.6399C14.2099 10.4743 14.2811 10.2968 14.348 10.1092Z" fill="currentColor"/>
</svg>

<svg width="24" height="24" fill="none" xmlns="http://www.w3.org/2000/svg"><path fill-rule="evenodd" clip-rule="evenodd" d="M7.984 11.31a3.068 3.068 0 01-.901-1.133 3.421 3.421 0 01-.145-.35 2.14 2.14 0 01.228-1.88 8.408 8.408 0 01-.022-.593l-.003-.368c-.004-.335-.004-.682.02-.994.022-.295.075-.736.276-1.18.238-.526.639-.96 1.183-1.231a2.9 2.9 0 01.699-.239c.158-.242.433-.585.87-.853.603-.371 1.274-.464 1.858-.484l.036-.001.244-.004h.032c.514 0 1.304.043 2.097.28.768.23 1.857.74 2.468 1.907.313.599.377 1.329.105 2.01l-.051.125-.002.004a1.965 1.965 0 00-.128.366c-.019.09-.037.232-.008.457.032.244.03.493.015.704.264.394.4.902.302 1.518a3.464 3.464 0 01-.43 1.192 2.35 2.35 0 01-.7.745c-.25.584-.585 1.191-1.027 1.681v.217c1.084.218 2.146.596 3.094 1.084 1.145.59 2.252 1.405 3.003 2.428.713.97.665 2.175.06 3.055C20.612 20.57 19.7 21 18.778 21l-13.556-.001c-.921 0-1.831-.43-2.379-1.224a2.615 2.615 0 01.05-3.052c.753-1.034 1.864-1.852 3.012-2.44A11.992 11.992 0 019 13.203v-.235c-.436-.488-.767-1.083-1.016-1.66zm6.364-1.2l.079-.22a.185.185 0 01.173-.123c.127 0 .336-.104.4-.213a1.482 1.482 0 00.182-.5c.018-.116-.086-.203-.203-.191a.21.21 0 01-.23-.234l.065-.545a5.96 5.96 0 00.047-.39 1.39 1.39 0 00-.004-.285 3.717 3.717 0 01-.031-.54c.01-.607.182-1.019.304-1.313l.042-.102a.401.401 0 00-.02-.339C14.647 4.151 13.204 4 12.36 4l-.243.004c-.903.03-1.043.282-1.204.574-.133.24-.356.64-.94.688-.777.065-.847.358-.831 1.7l.003.38c0 .296.023.615.068.943v.006l.064.46a.195.195 0 01-.242.216c-.13-.034-.25.071-.207.198a1.42 1.42 0 00.098.22.95.95 0 00.285.338.184.184 0 00.07.023.46.46 0 01.364.315l.004.011a6.88 6.88 0 00.303.724c.26.525.554.916.848 1.114a.224.224 0 00.042.022.252.252 0 01.159.235V14c0 .552-.45.995-.997 1.065-1.7.218-3.452.959-4.629 1.934l-.012.01a4.85 4.85 0 00-.852.89c-.372.511.08 1.1.711 1.1h13.557c.632 0 1.081-.588.707-1.097a4.9 4.9 0 00-.857-.89L18.614 17c-1.177-.97-2.923-1.714-4.617-1.934-.548-.07-.997-.514-.997-1.066v-1.745a.4.4 0 01.232-.363.34.34 0 00.06-.036c.283-.211.568-.62.818-1.16l.025-.056c.075-.166.146-.343.213-.53z" fill="currentColor"/></svg>
